elementary-xfce/actions/24/system-suspend.svg

<?xml version="1.0" encoding="UTF-8" standalone="no"?>
<svg
   version="1.2"
   width="24"
   height="24"
   id="svg2"
   sodipodi:docname="system-suspend.svg"
   inkscape:version="1.3.2 (1:1.3.2+202311252150+091e20ef0f)"
   xmlns:inkscape="http://www.inkscape.org/namespaces/inkscape"
   xmlns:sodipodi="http://sodipodi.sourceforge.net/DTD/sodipodi-0.dtd"
   xmlns:xlink="http://www.w3.org/1999/xlink"
   xmlns="http://www.w3.org/2000/svg"
   xmlns:svg="http://www.w3.org/2000/svg"
   xmlns:rdf="http://www.w3.org/1999/02/22-rdf-syntax-ns#"
   xmlns:cc="http://creativecommons.org/ns#"
   xmlns:dc="http://purl.org/dc/elements/1.1/">
  <sodipodi:namedview
     pagecolor="#ffffff"
     bordercolor="#666666"
     borderopacity="1"
     objecttolerance="10"
     gridtolerance="10"
     guidetolerance="10"
     inkscape:pageopacity="0"
     inkscape:pageshadow="2"
     inkscape:window-width="1920"
     inkscape:window-height="1030"
     id="namedview27"
     showgrid="false"
     inkscape:zoom="33.041666"
     inkscape:cx="6.8195126"
     inkscape:cy="10.424414"
     inkscape:window-x="0"
     inkscape:window-y="0"
     inkscape:window-maximized="1"
     inkscape:current-layer="svg2"
     inkscape:document-rotation="0"
     inkscape:showpageshadow="2"
     inkscape:pagecheckerboard="0"
     inkscape:deskcolor="#d1d1d1" />
  <defs
     id="defs4">
    <linearGradient
       id="linearGradient4011">
      <stop
         id="stop4013"
         style="stop-color:#ffffff;stop-opacity:1"
         offset="0" />
      <stop
         id="stop4015-3"
         style="stop-color:#ffffff;stop-opacity:0.23529412"
         offset="0.507761" />
      <stop
         id="stop4017-2"
         style="stop-color:#ffffff;stop-opacity:0.15686275"
         offset="0.83456558" />
      <stop
         id="stop4019"
         style="stop-color:#ffffff;stop-opacity:0.39215687"
         offset="1" />
    </linearGradient>
    <radialGradient
       r="62.769119"
       fy="185.29727"
       fx="99.189415"
       cy="185.29727"
       cx="99.189415"
       gradientTransform="matrix(0.3823536,7.5555777e-8,-1.8372241e-8,0.1115198,-5.9254271,36.335849)"
       gradientUnits="userSpaceOnUse"
       id="radialGradient3300-8"
       xlink:href="#linearGradient3820-7-2" />
    <linearGradient
       id="linearGradient3820-7-2">
      <stop
         offset="0"
         style="stop-color:#000000;stop-opacity:1"
         id="stop3822-2-6" />
      <stop
         offset="1"
         style="stop-color:#000000;stop-opacity:0"
         id="stop3824-1-2" />
    </linearGradient>
    <radialGradient
       r="62.769119"
       fy="185.29727"
       fx="99.189415"
       cy="185.29727"
       cx="99.189415"
       gradientTransform="matrix(0.2549024,5.3967361e-8,-1.2248161e-8,0.07965545,6.7163816,44.240666)"
       gradientUnits="userSpaceOnUse"
       id="radialGradient4192-6"
       xlink:href="#linearGradient3820-7-2" />
    <linearGradient
       gradientTransform="matrix(0,0.51219514,-0.51219509,0,24.292682,-0.29268291)"
       gradientUnits="userSpaceOnUse"
       y2="23.999998"
       x2="44.5"
       y1="23.999998"
       x1="3.4999995"
       id="linearGradient887"
       xlink:href="#linearGradient902" />
    <linearGradient
       id="linearGradient885">
      <stop
         id="stop881"
         offset="0"
         style="stop-color:#ffa154;stop-opacity:1" />
      <stop
         id="stop883"
         offset="1"
         style="stop-color:#f37329;stop-opacity:1" />
    </linearGradient>
    <linearGradient
       gradientTransform="matrix(0.54054052,0,0,0.54054054,-26.774873,-1.7066172)"
       gradientUnits="userSpaceOnUse"
       xlink:href="#linearGradient4011"
       id="linearGradient3019"
       y2="44.340794"
       x2="71.204407"
       y1="6.2375584"
       x1="71.204407" />
    <radialGradient
       r="62.769119"
       fy="185.29727"
       fx="99.189415"
       cy="185.29727"
       cx="99.189415"
       gradientTransform="matrix(0.3823536,7.5555777e-8,-1.8372241e-8,0.1115198,-5.9254271,36.335849)"
       gradientUnits="userSpaceOnUse"
       id="radialGradient3300-8-3"
       xlink:href="#linearGradient3820-7-2" />
    <radialGradient
       r="62.769119"
       fy="185.29727"
       fx="99.189415"
       cy="185.29727"
       cx="99.189415"
       gradientTransform="matrix(0.2549024,5.3967361e-8,-1.2248161e-8,0.07965545,6.7163816,44.240666)"
       gradientUnits="userSpaceOnUse"
       id="radialGradient4192-6-5"
       xlink:href="#linearGradient3820-7-2" />
    <linearGradient
       gradientTransform="rotate(90,53.501255,14.667215)"
       gradientUnits="userSpaceOnUse"
       y2="23.999998"
       x2="44.5"
       y1="23.999998"
       x1="3.4999995"
       id="linearGradient887-3"
       xlink:href="#linearGradient902" />
    <linearGradient
       inkscape:collect="always"
       id="linearGradient902">
      <stop
         style="stop-color:#2cc5d8;stop-opacity:1"
         offset="0"
         id="stop898" />
      <stop
         style="stop-color:#2da4c3;stop-opacity:1"
         offset="1"
         id="stop900" />
    </linearGradient>
    <linearGradient
       gradientTransform="matrix(1.054054,0,0,1.054054,-31.442529,-41.56194)"
       gradientUnits="userSpaceOnUse"
       xlink:href="#linearGradient4011"
       id="linearGradient3019-5"
       y2="44.340794"
       x2="71.204407"
       y1="6.2375584"
       x1="71.204407" />
    <radialGradient
       gradientTransform="matrix(0.94117648,0,0,0.2823525,-46.941178,19.7)"
       gradientUnits="userSpaceOnUse"
       xlink:href="#linearGradient3820-7-2"
       id="radialGradient3120"
       fy="4.625"
       fx="62.625"
       r="10.625"
       cy="4.625"
       cx="62.625" />
  </defs>
  <metadata
     id="metadata7">
    <rdf:RDF>
      <cc:Work
         rdf:about="">
        <dc:format>image/svg+xml</dc:format>
        <dc:type
           rdf:resource="http://purl.org/dc/dcmitype/StillImage" />
        <dc:title />
      </cc:Work>
    </rdf:RDF>
  </metadata>
  <path
     d="m 22,21 c 0,1.7 -4.477154,3 -10,3 -5.522848,0 -10,-1.3 -10,-3 0,-1.7 4.477152,-3 10,-3 5.522846,0 10,1.3 10,3 z"
     id="path8836-1"
     style="display:inline;overflow:visible;visibility:visible;opacity:0.3;fill:url(#radialGradient3120);fill-opacity:1;fill-rule:evenodd;stroke:none;stroke-width:1;marker:none" />
  <g
     style="stroke-width:2.86337"
     transform="matrix(0.34552847,0,0,0.35298856,0.9430875,0.52694603)"
     id="g4198-4">
    <path
       style="opacity:0.2;fill:url(#radialGradient3300-8);fill-opacity:1;stroke:none;stroke-width:2.86337"
       id="path3818-0-6"
       d="m 55.999998,57.0017 a 24,6.9985714 0 1 1 -47.9999991,0 24,6.9985714 0 1 1 47.9999991,0 z" />
    <path
       d="m 47.999998,59.0017 a 16,4.9988822 0 1 1 -31.999999,0 16,4.9988822 0 1 1 31.999999,0 z"
       id="path4190-2"
       style="opacity:0.4;fill:url(#radialGradient4192-6);fill-opacity:1;stroke:none;stroke-width:2.86337" />
  </g>
  <path
     style="color:#000000;display:inline;overflow:visible;visibility:visible;fill:url(#linearGradient887);fill-opacity:1;fill-rule:nonzero;stroke:none;stroke-width:1;marker:none;enable-background:accumulate"
     id="path2555"
     d="M 22.499999,12.000002 C 22.499999,6.2064639 17.793538,1.5 12,1.5 6.2064628,1.5 1.4999978,6.2064639 1.4999999,12.000002 1.4999999,17.793537 6.2064628,22.500006 12,22.5 c 5.793538,0 10.499999,-4.706463 10.499999,-10.499998 z" />
  <path
     style="color:#000000;display:inline;overflow:visible;visibility:visible;opacity:0.5;fill:none;stroke:url(#linearGradient3019);stroke-width:0.999998;stroke-linecap:round;stroke-linejoin:round;stroke-miterlimit:4;stroke-dasharray:none;stroke-dashoffset:0;stroke-opacity:1;marker:none;enable-background:accumulate"
     id="path8655"
     d="m 22,11.999644 c 0,5.523026 -4.477482,10.000355 -9.999874,10.000355 -5.5228966,0 -10.000127,-4.477379 -10.000127,-10.000355 0,-5.52277 4.4772304,-9.999645 10.000127,-9.999645 C 17.522518,1.999999 22,6.476874 22,11.999644 Z" />
  <path
     style="color:#000000;display:inline;overflow:visible;visibility:visible;opacity:0.5;fill:none;stroke:#007293;stroke-width:1;stroke-linecap:round;stroke-linejoin:round;stroke-miterlimit:4;stroke-dasharray:none;stroke-dashoffset:0;stroke-opacity:1;marker:none;enable-background:accumulate"
     id="path2555-6"
     d="M 12.000001,1.5 C 6.2064643,1.5 1.5,6.2064612 1.5,11.999998 1.5,17.793536 6.2064643,22.5 12.000001,22.499999 17.793537,22.499999 22.500005,17.793536 22.5,11.999998 22.5,6.2064612 17.793537,1.5 12.000001,1.5 Z" />
  <path
     inkscape:connector-curvature="0"
     id="path892"
     d="m 13.636429,7.0000435 c 0.774625,0.901007 1.244352,2.0526013 1.244352,3.3120185 0,2.878703 -2.431035,5.212391 -5.4298877,5.212391 -1.3119686,0 -2.5115863,-0.45091 -3.4502086,-1.194509 0.6565452,2.686486 3.1663602,4.669416 6.1651523,4.669416 3.498665,0 6.334848,-2.722579 6.334848,-6.081102 0,-2.878703 -2.065661,-5.2879575 -4.864256,-5.9182145 z"
     style="color:#bebebe;display:inline;overflow:visible;visibility:visible;opacity:0.4;fill:#141f2b;fill-opacity:1;fill-rule:nonzero;stroke:none;stroke-width:2.4;marker:none;enable-background:accumulate" />
  <path
     inkscape:connector-curvature="0"
     id="path5549"
     d="m 13.455272,6.25 c 0.743641,0.9010584 1.194578,2.0527181 1.194578,3.3122075 0,2.8788665 -2.333793,5.2126865 -5.212691,5.2126865 -1.25949,0 -2.411123,-0.450935 -3.3122,-1.194576 0.630283,2.686638 3.039705,4.66968 5.918545,4.66968 3.358718,0 6.081453,-2.722732 6.081453,-6.081447 0,-2.8788665 -1.983034,-5.2882581 -4.669685,-5.918551 z"
     style="color:#bebebe;display:inline;overflow:visible;visibility:visible;fill:#f1f3f5;fill-opacity:1;fill-rule:nonzero;stroke:none;stroke-width:2.4;marker:none;enable-background:accumulate" />
  <path
     style="opacity:0.4;fill:none;stroke:#141f2b;stroke-width:1;stroke-linecap:round;stroke-linejoin:round;stroke-miterlimit:4;stroke-dasharray:none;stroke-opacity:1"
     d="m 5.5,10 h 2 l -2,3 h 2"
     id="path869"
     sodipodi:nodetypes="cccc" />
  <path
     style="fill:none;stroke:#f1f3f5;stroke-width:1;stroke-linecap:round;stroke-linejoin:round;stroke-miterlimit:4;stroke-dasharray:none;stroke-opacity:1"
     d="m 5.5,9.5000002 h 2 L 5.5,12.5 h 2"
     id="path948-2-0-9"
     sodipodi:nodetypes="cccc" />
  <path
     sodipodi:nodetypes="cccc"
     id="path867"
     d="m 9,6 h 3 l -3,4 h 3"
     style="opacity:0.4;fill:none;stroke:#141f2b;stroke-width:1;stroke-linecap:round;stroke-linejoin:round;stroke-miterlimit:4;stroke-dasharray:none;stroke-opacity:1" />
  <path
     sodipodi:nodetypes="cccc"
     id="path948-2-0-9-2"
     d="m 9,5.5 h 3 l -3,4 h 3"
     style="fill:none;stroke:#f1f3f5;stroke-width:1;stroke-linecap:round;stroke-linejoin:round;stroke-miterlimit:4;stroke-dasharray:none;stroke-opacity:1" />
</svg>

<?xml version="1.0" encoding="UTF-8" standalone="no"?>
<svg
   id="svg2"
   height="24"
   width="24"
   version="1.2"
   sodipodi:docname="system-suspend.svg"
   inkscape:version="1.2.2 (b0a8486541, 2022-12-01)"
   xmlns:inkscape="http://www.inkscape.org/namespaces/inkscape"
   xmlns:sodipodi="http://sodipodi.sourceforge.net/DTD/sodipodi-0.dtd"
   xmlns:xlink="http://www.w3.org/1999/xlink"
   xmlns="http://www.w3.org/2000/svg"
   xmlns:svg="http://www.w3.org/2000/svg"
   xmlns:rdf="http://www.w3.org/1999/02/22-rdf-syntax-ns#"
   xmlns:cc="http://creativecommons.org/ns#"
   xmlns:dc="http://purl.org/dc/elements/1.1/">
  <sodipodi:namedview
     id="namedview14641"
     pagecolor="#ffffff"
     bordercolor="#000000"
     borderopacity="0.25"
     inkscape:showpageshadow="2"
     inkscape:pageopacity="0.0"
     inkscape:pagecheckerboard="0"
     inkscape:deskcolor="#d1d1d1"
     showgrid="false"
     inkscape:zoom="17.875"
     inkscape:cx="11.832168"
     inkscape:cy="14.881119"
     inkscape:window-width="1278"
     inkscape:window-height="801"
     inkscape:window-x="640"
     inkscape:window-y="112"
     inkscape:window-maximized="0"
     inkscape:current-layer="svg2" />
  <defs
     id="defs4">
    <linearGradient
       id="linearGradient4011">
      <stop
         offset="0"
         style="stop-color:#ffffff;stop-opacity:1"
         id="stop4013" />
      <stop
         offset="0.507761"
         style="stop-color:#ffffff;stop-opacity:0.23529412"
         id="stop4015-3" />
      <stop
         offset="0.83456558"
         style="stop-color:#ffffff;stop-opacity:0.15686275"
         id="stop4017-2" />
      <stop
         offset="1"
         style="stop-color:#ffffff;stop-opacity:0.39215687"
         id="stop4019" />
    </linearGradient>
    <linearGradient
       gradientTransform="matrix(0.5135135,0,0,0.5135135,-24.83614,-1.0212801)"
       gradientUnits="userSpaceOnUse"
       xlink:href="#linearGradient4011"
       id="linearGradient12398-3"
       y2="44.340794"
       x2="71.204407"
       y1="6.2375584"
       x1="71.204407" />
    <radialGradient
       gradientTransform="matrix(0.94117648,0,0,0.2823525,-46.941177,19.694118)"
       gradientUnits="userSpaceOnUse"
       xlink:href="#linearGradient3820-7-2"
       id="radialGradient3120"
       fy="4.625"
       fx="62.625"
       r="10.625"
       cy="4.625"
       cx="62.625" />
    <linearGradient
       id="linearGradient3820-7-2">
      <stop
         offset="0"
         style="stop-color:#000000;stop-opacity:1"
         id="stop3822-2-6" />
      <stop
         offset="1"
         style="stop-color:#000000;stop-opacity:0"
         id="stop3824-1-2" />
    </linearGradient>
    <linearGradient
       gradientTransform="matrix(0,0.51219512,-0.51219512,0,24.292683,-0.292682)"
       gradientUnits="userSpaceOnUse"
       y2="23.999998"
       x2="44.5"
       y1="23.999998"
       x1="3.4999995"
       id="linearGradient887-3"
       xlink:href="#linearGradient902" />
    <linearGradient
       inkscape:collect="always"
       id="linearGradient902">
      <stop
         style="stop-color:#2cc5d8;stop-opacity:1"
         offset="0"
         id="stop898" />
      <stop
         style="stop-color:#2da4c3;stop-opacity:1"
         offset="1"
         id="stop900" />
    </linearGradient>
  </defs>
  <metadata
     id="metadata7">
    <rdf:RDF>
      <cc:Work
         rdf:about="">
        <dc:format>image/svg+xml</dc:format>
        <dc:type
           rdf:resource="http://purl.org/dc/dcmitype/StillImage" />
      </cc:Work>
    </rdf:RDF>
  </metadata>
  <path
     d="m 22,21 c 0,1.656854 -4.477153,3 -10,3 -5.5228474,0 -10,-1.343146 -10,-3 0,-1.656854 4.4771526,-3 10,-3 5.522847,0 10,1.343146 10,3 z"
     id="path8836-1"
     style="display:inline;overflow:visible;visibility:visible;opacity:0.3;fill:url(#radialGradient3120);fill-opacity:1;fill-rule:evenodd;stroke:none;stroke-width:1;marker:none" />
  <path
     style="color:#000000;display:inline;overflow:visible;visibility:visible;opacity:1;fill:url(#linearGradient887-3);fill-opacity:1;fill-rule:nonzero;stroke:none;stroke-width:0.999999;marker:none;enable-background:accumulate;font-variation-settings:normal;vector-effect:none;stroke-linecap:butt;stroke-linejoin:miter;stroke-miterlimit:4;stroke-dasharray:none;stroke-dashoffset:0;stroke-opacity:1;-inkscape-stroke:none;stop-color:#000000;stop-opacity:1"
     id="path2555-7-8-5-0-9"
     d="M 12,1.4999999 C 6.2064599,1.4999999 1.4999999,6.2064599 1.4999999,12 1.4999999,17.79354 6.2064599,22.5 12,22.5 17.79354,22.5 22.50001,17.79354 22.5,12 22.5,6.2064599 17.79354,1.4999999 12,1.4999999 Z" />
  <path
     style="color:#000000;display:inline;overflow:visible;visibility:visible;opacity:0.5;fill:none;stroke:#004f66;stroke-width:0.999995;stroke-linecap:round;stroke-linejoin:round;stroke-miterlimit:4;stroke-dasharray:none;stroke-dashoffset:0;stroke-opacity:1;marker:none;enable-background:accumulate;clip-rule:nonzero;isolation:auto;mix-blend-mode:normal;color-interpolation:sRGB;color-interpolation-filters:linearRGB;solid-color:#000000;solid-opacity:1;fill-opacity:1;fill-rule:nonzero;filter-blend-mode:normal;filter-gaussianBlur-deviation:0;color-rendering:auto;image-rendering:auto;shape-rendering:auto;text-rendering:auto;font-variation-settings:normal;vector-effect:none;-inkscape-stroke:none;stop-color:#000000;stop-opacity:1"
     id="path2555-7-8-5-1"
     d="M 12,1.4999999 C 6.2064599,1.4999999 1.4999999,6.2064599 1.4999999,12 1.4999999,17.79354 6.2064599,22.5 12,22.5 17.79354,22.5 22.50001,17.79354 22.5,12 22.5,6.2064599 17.79354,1.4999999 12,1.4999999 Z" />
  <path
     style="color:#000000;display:inline;overflow:visible;visibility:visible;opacity:0.5;fill:none;stroke:url(#linearGradient12398-3);stroke-width:0.99999988;stroke-linecap:round;stroke-linejoin:round;stroke-miterlimit:4;stroke-dasharray:none;stroke-dashoffset:0;stroke-opacity:1;marker:none;enable-background:accumulate"
     id="path8655-6-0-9-5-0"
     d="m 21.49999,11.99966 c 0,5.24688 -4.25361,9.50034 -9.49988,9.50034 -5.2467501,0 -9.5001101,-4.25351 -9.5001101,-9.50034 0,-5.2466301 4.25336,-9.4996601 9.5001101,-9.4996601 5.24627,0 9.49988,4.25303 9.49988,9.4996601 z" />
  <path
     inkscape:connector-curvature="0"
     id="path892"
     d="m 14.135744,7.2500437 c 0.774625,0.901007 1.244352,2.052601 1.244352,3.3120183 0,2.878703 -2.431035,5.212391 -5.4298874,5.212391 -1.311969,0 -2.511586,-0.45091 -3.450209,-1.194509 0.656546,2.686486 3.166361,4.669416 6.1651524,4.669416 C 16.163817,19.24936 19,16.526781 19,13.168258 19,10.289555 16.934339,7.8803007 14.135744,7.2500437 Z"
     style="color:#bebebe;display:inline;overflow:visible;visibility:visible;opacity:1;fill:#0e141f;fill-opacity:0.34902;fill-rule:nonzero;stroke:none;stroke-width:1;marker:none;enable-background:accumulate;font-variation-settings:normal;vector-effect:none;stroke-linecap:round;stroke-linejoin:miter;stroke-miterlimit:4;stroke-dasharray:none;stroke-dashoffset:0;stroke-opacity:1;-inkscape-stroke:none;stop-color:#000000;stop-opacity:1" />
  <path
     inkscape:connector-curvature="0"
     id="path5549"
     d="m 13.954587,6.4999997 c 0.743641,0.901059 1.194578,2.052718 1.194578,3.312208 0,2.8788663 -2.333793,5.2126863 -5.2126904,5.2126863 -1.25949,0 -2.411123,-0.450935 -3.3122,-1.194576 0.630283,2.686638 3.039705,4.66968 5.9185444,4.66968 3.358718,0 6.081453,-2.722732 6.081453,-6.081447 0,-2.8788673 -1.983034,-5.2882583 -4.669685,-5.9185513 z"
     style="color:#bebebe;display:inline;overflow:visible;visibility:visible;fill:#ffffff;fill-opacity:1;fill-rule:nonzero;stroke:none;stroke-width:2.4;marker:none;enable-background:accumulate" />
  <path
     style="opacity:1;fill:none;stroke:#0e141f;stroke-width:1;stroke-linecap:round;stroke-linejoin:round;stroke-miterlimit:4;stroke-dasharray:none;stroke-opacity:0.34901962"
     d="M 5.5,9.9999997 H 7.4999996 L 5.5,13 h 1.9999996"
     id="path869"
     sodipodi:nodetypes="cccc" />
  <path
     style="fill:none;stroke:#ffffff;stroke-width:1;stroke-linecap:round;stroke-linejoin:round;stroke-miterlimit:4;stroke-dasharray:none;stroke-opacity:1"
     d="M 5.5,9.5000007 H 7.4999996 L 5.5,12.5 h 1.9999996"
     id="path948-2-0-9"
     sodipodi:nodetypes="cccc" />
  <path
     sodipodi:nodetypes="cccc"
     id="path867"
     d="M 8.9999996,6 H 12 L 8.9999996,9.9999997 H 12"
     style="opacity:1;fill:none;stroke:#0e141f;stroke-width:1;stroke-linecap:round;stroke-linejoin:round;stroke-miterlimit:4;stroke-dasharray:none;stroke-opacity:0.34901962" />
  <path
     sodipodi:nodetypes="cccc"
     id="path948-2-0-9-2"
     d="M 8.9999996,5.5 H 12 L 8.9999996,9.4999997 H 12"
     style="fill:none;stroke:#ffffff;stroke-width:1;stroke-linecap:round;stroke-linejoin:round;stroke-miterlimit:4;stroke-dasharray:none;stroke-opacity:1" />
</svg>
